static/img/kroki/eca7880113c3b6cf23a770eec0d7d34a.svg

<?xml version="1.0" encoding="us-ascii" standalone="no"?><svg xmlns="http://www.w3.org/2000/svg" xmlns:xlink="http://www.w3.org/1999/xlink" contentStyleType="text/css" height="152px" preserveAspectRatio="none" style="width:290px;height:152px;" version="1.1" viewBox="0 0 290 152" width="290px" zoomAndPan="magnify"><defs/><g><!--class aws_backup_recovery_point--><g id="elem_aws_backup_recovery_point"><rect codeLine="23" fill="#3D176E" height="39.7891" id="aws_backup_recovery_point" rx="2.5" ry="2.5" style="stroke:#000D19;stroke-width:0.5;" width="276" x="7" y="7"/><ellipse cx="22" cy="26.8945" fill="#ADD1B2" rx="11" ry="11" style="stroke:#181818;stroke-width:1.0;"/><path d="M24.9688,32.5352 Q24.3906,32.832 23.75,32.9727 Q23.1094,33.1289 22.4063,33.1289 Q19.9063,33.1289 18.5781,31.4883 Q17.2656,29.832 17.2656,26.707 Q17.2656,23.582 18.5781,21.9258 Q19.9063,20.2695 22.4063,20.2695 Q23.1094,20.2695 23.75,20.4258 Q24.4063,20.582 24.9688,20.8789 L24.9688,23.5977 Q24.3438,23.0195 23.75,22.7539 Q23.1563,22.4727 22.5313,22.4727 Q21.1875,22.4727 20.5,23.5508 Q19.8125,24.6133 19.8125,26.707 Q19.8125,28.8008 20.5,29.8789 Q21.1875,30.9414 22.5313,30.9414 Q23.1563,30.9414 23.75,30.6758 Q24.3438,30.3945 24.9688,29.8164 L24.9688,32.5352 Z " fill="#000000"/><text fill="#D9B8FF" font-family="Helvetica" font-size="17" lengthAdjust="spacing" textLength="234" x="41" y="32.7798">aws_backup_recovery_point</text></g><!--class aws_backup_restore_job--><g id="elem_aws_backup_restore_job"><rect codeLine="26" fill="#3D176E" height="39.7891" id="aws_backup_restore_job" rx="2.5" ry="2.5" style="stroke:#000D19;stroke-width:0.5;" width="245" x="22.5" y="106.79"/><ellipse cx="37.5" cy="126.6845" fill="#ADD1B2" rx="11" ry="11" style="stroke:#181818;stroke-width:1.0;"/><path d="M40.4688,132.3252 Q39.8906,132.622 39.25,132.7627 Q38.6094,132.9189 37.9063,132.9189 Q35.4063,132.9189 34.0781,131.2783 Q32.7656,129.622 32.7656,126.497 Q32.7656,123.372 34.0781,121.7158 Q35.4063,120.0595 37.9063,120.0595 Q38.6094,120.0595 39.25,120.2158 Q39.9063,120.372 40.4688,120.6689 L40.4688,123.3877 Q39.8438,122.8095 39.25,122.5439 Q38.6563,122.2627 38.0313,122.2627 Q36.6875,122.2627 36,123.3408 Q35.3125,124.4033 35.3125,126.497 Q35.3125,128.5908 36,129.6689 Q36.6875,130.7314 38.0313,130.7314 Q38.6563,130.7314 39.25,130.4658 Q39.8438,130.1845 40.4688,129.6064 L40.4688,132.3252 Z " fill="#000000"/><text fill="#D9B8FF" font-family="Helvetica" font-size="17" lengthAdjust="spacing" textLength="203" x="56.5" y="132.5698">aws_backup_restore_job</text></g><!--link aws_backup_recovery_point to aws_backup_restore_job--><g id="link_aws_backup_recovery_point_aws_backup_restore_job"><path codeLine="29" d="M145,47.22 C145,64.36 145,83.27 145,100.41 " fill="none" id="aws_backup_recovery_point-to-aws_backup_restore_job" style="stroke:#1A83AF;stroke-width:2.0;"/><polygon fill="#1A83AF" points="145,106.41,149,97.41,145,101.41,141,97.41,145,106.41" style="stroke:#1A83AF;stroke-width:2.0;"/></g><!--SRC=[XT31IiD040RWUvvY8UT2Oz2s5o4MYbwAM6yYOPETRTOaEs5ssbB5TxUnAclIjDUPZvb_fZ0A1DGDxqKDTGRa0bSQsqYIjKY8S3V72ac4MaiTJxhD1Lg-29Qo1d4FrHROvB8hdWkJbnQS4rTUwqxcvPfmOzLnF9Eqxj02ovwQLzAvX9bCjc7mmgXPDjMwAxj3mrX5anleCIG5z4F6ux6APbroSTNPk__4oho3YFodBP6X5xEtubkTJTaABsJlqD_-OCP7gPInQt7jrPwEcSW2_Qkl2gbmrsejA-UlSGm4oFi6vhshO3PLUd8IFmpX86zV9-JEfTc1R9gK8CSjq3vjq5WM7q7mUGevHeBq3REZ61umUWcZP1edYzVHxS28u0i0]--></g></svg>

<svg xmlns="http://www.w3.org/2000/svg" width="290" height="152" viewBox="0 0 290 152"><rect width="276" height="39.789" x="7" y="7" fill="#3D176E" rx="2.5" ry="2.5" style="stroke:#000d19;stroke-width:.5"/><circle cx="22" cy="26.895" r="11" fill="#ADD1B2" style="stroke:#181818;stroke-width:1"/><path d="M24.969 32.535q-.578.297-1.219.438-.64.156-1.344.156-2.5 0-3.828-1.64-1.312-1.657-1.312-4.782t1.312-4.781q1.328-1.656 3.828-1.656.703 0 1.344.156.656.156 1.219.453v2.719q-.625-.578-1.219-.844-.594-.281-1.219-.281-1.343 0-2.031 1.078-.687 1.062-.687 3.156t.687 3.172q.688 1.062 2.031 1.062.625 0 1.219-.265.594-.281 1.219-.86z"/><text x="41" y="32.78" fill="#D9B8FF" font-family="Helvetica" font-size="17" textLength="234">aws_backup_recovery_point</text><rect width="245" height="39.789" x="22.5" y="106.79" fill="#3D176E" rx="2.5" ry="2.5" style="stroke:#000d19;stroke-width:.5"/><circle cx="37.5" cy="126.684" r="11" fill="#ADD1B2" style="stroke:#181818;stroke-width:1"/><path d="M40.469 132.325q-.578.297-1.219.438-.64.156-1.344.156-2.5 0-3.828-1.64-1.312-1.657-1.312-4.782t1.312-4.781q1.328-1.656 3.828-1.656.703 0 1.344.156.656.156 1.219.453v2.719q-.625-.579-1.219-.844-.594-.281-1.219-.281-1.343 0-2.031 1.078-.687 1.062-.687 3.156t.687 3.172q.688 1.062 2.031 1.062.625 0 1.219-.265.594-.281 1.219-.86z"/><text x="56.5" y="132.57" fill="#D9B8FF" font-family="Helvetica" font-size="17" textLength="203">aws_backup_restore_job</text><path fill="none" d="M145 47.22v53.19" style="stroke:#1a83af;stroke-width:2"/><path fill="#1A83AF" d="m145 106.41 4-9-4 4-4-4z" style="stroke:#1a83af;stroke-width:2"/></svg>
